svg/fluentui-system-icons/ic_fluent_layer_diagonal_20_filled.svg

<svg width="20" height="20" viewBox="0 0 20 20" fill="none" xmlns="http://www.w3.org/2000/svg">
<path d="M9.44703 2.10686C10.4024 1.72845 11.4361 2.4004 11.4966 3.40817L5.42147 5.81431C4.56349 6.15412 4 6.98338 4 7.90621V13.9121C3.03035 14.2566 2 13.5381 2 12.4978V6.75514C2 5.72978 2.6261 4.80838 3.57942 4.43081L9.44703 2.10686ZM12.447 4.10735C13.4316 3.71738 14.4994 4.44293 14.4994 5.50195V5.60437L9.26353 7.6781C8.50088 7.98016 8 8.71728 8 9.53757V15.5171L7.05288 15.8927C6.06819 16.2831 5 15.5575 5 14.4983V8.41588C5 7.59559 5.50088 6.85847 6.26353 6.55641L12.447 4.10735ZM18 7.50097V14.1242C18 14.7394 17.6243 15.2922 17.0524 15.5188L11.0524 17.8951C10.0677 18.2851 9 17.5596 9 16.5005V9.87736C9 9.26214 9.37566 8.7093 9.94765 8.48275L15.9476 6.10637C16.9323 5.7164 18 6.44195 18 7.50097Z" fill="#212121"/>
</svg>

<svg xmlns="http://www.w3.org/2000/svg" width="20" height="20"><path d="M9.447 2.107a1.5 1.5 0 0 1 2.05 1.301L5.42 5.814A2.25 2.25 0 0 0 4 7.906v6.006a1.5 1.5 0 0 1-2-1.414V6.755a2.5 2.5 0 0 1 1.58-2.324l5.867-2.324Zm3 2a1.5 1.5 0 0 1 2.052 1.395v.102L9.264 7.678A2 2 0 0 0 8 9.538v5.98l-.947.375A1.5 1.5 0 0 1 5 14.498V8.416a2 2 0 0 1 1.264-1.86l6.183-2.449ZM18 7.501v6.623a1.5 1.5 0 0 1-.948 1.395l-6 2.376A1.5 1.5 0 0 1 9 16.5V9.877a1.5 1.5 0 0 1 .948-1.394l6-2.377A1.5 1.5 0 0 1 18 7.501Z"/></svg>
